X: 2244
T: B B Per Sempre
R: reel
M: 4/4
K: Adorian
|:^g/az/eA cABG|EA^GB A=GED|EEAB cdec|dgfd ~g3^g
azeA cABG|EA^GB A=GED|EEAB cdeg|1 edBG ~a3z:|2 edBG ~A3z||
|:EABc ~c2Bc|dgfd ggfg|gaab c'zac'|bagb ~a3b
c'zba agga|~g3a gedg|edcA BAGB|AGEG GAAz:|

